X:1
T:Title
%%score ( 1 2 ) ( 3 4 )
L:1/8
Q:1/4=93
M:6/8
K:E
V:1 treble nm="Grand Piano, Soprano"
V:2 treble 
V:3 bass nm="Choir Pad, Jesus Knocks at Thy Heart"
V:4 bass 
V:1
 [EG][EG][EG] [EG][DF]E | [DB][EB][FB] [EB]3 | [EB][Ec][^EG] [FA]3 | [DA][DB][DF] [EG]3 | %4
w: By~Anthony~Johnson~Showalter * * * * *||||
 [EG][EG][EG] [EG][DF]E | [DB][EB][FB] [EB]3 | [Ec][Ec][Ee] [Fd][Fd][Ec] | [DB]6 | %8
w: ||||
 [EB]3- [EB][Ec][^EG] | [FA]6 | [FA]3- [FA][DB][DF] | [EG]6 | .e6 | .B6 | %14
w: ||||||
 [DF][EG][FA] [EG][EG][DF] | E6- | E3 z3 |] %17
w: |||
V:2
 x6 | x6 | x6 | x6 | x6 | x6 | x6 | x6 | x6 | x6 | x6 | x6 | BBB A[Ad][Ac] | GGG G[EG]E | x6 | x6 | %16
 x6 |] %17
V:3
 [E,B,][E,B,][E,B,] [E,B,][E,B,][E,G,] | [B,,F,][B,,G,][B,,A,] [E,G,]3 | [E,G,][C,G,][C,C] [F,C]3 | %3
 [F,B,][B,,B,][B,,B,] [E,B,]3 | [E,B,][E,B,][E,B,] [E,B,][E,A,][E,G,] | %5
 [B,,F,][B,,G,][B,,A,] [E,G,]3 | [C,G,][C,G,][C,C] [F,B,][F,B,][F,^A,] | [B,,B,]6 | %8
 [E,G,]2 [E,G,] [E,G,]G,[C,C] | [F,C]2 [F,C] .[F,C]3 | [F,B,]2 [F,B,] [F,B,][B,,B,][B,,B,] | %11
 [E,B,]2 [E,B,] .[E,B,]3 | [G,=D][G,D][G,D] [A,C][A,D][A,E] | [E,E][E,E][E,E] EB,[E,G,] | %14
 [B,,B,][B,,B,][B,,B,] [B,,B,][B,,B,][B,,A,] | [E,G,]6- | [E,G,]3 z3 |] %17
V:4
 x6 | x6 | x6 | x6 | x6 | x6 | x6 | x6 | x6 | x6 | x6 | x6 | x6 | z3 .E,3 | x6 | x6 | x6 |] %17

